icons/remixicon-line.svg

<svg xmlns="http://www.w3.org/2000/svg" width="24" height="24" fill="none"><g clip-path="url(#a)"><g><path fill="#121212" d="M6.364 6L15.148 15.663L15.868 15.38C17.553 14.719 18.732 13.224 18.96 11.484C17.3342 11.599 15.7244 11.0991 14.4497 10.0835C13.1749 9.06781 12.3281 7.61043 12.077 6H6.363H6.364ZM14 5C13.9999 5.78643 14.206 6.55914 14.5976 7.24113C14.9892 7.92312 15.5527 8.49058 16.2319 8.88695C16.9112 9.28332 17.6824 9.49477 18.4688 9.50021C19.2552 9.50566 20.0293 9.30492 20.714 8.918C20.9 9.536 21 10.189 21 10.865C21 13.756 19.178 16.229 16.6 17.242L20 21H3V4H14.111C14.0369 4.32816 13.9996 4.66357 14 5ZM18.5 7.5C17.837 7.5 17.2011 7.23661 16.7322 6.76777C16.2634 6.29893 16 5.66304 16 5C16 4.33696 16.2634 3.70107 16.7322 3.23223C17.2011 2.76339 17.837 2.5 18.5 2.5C19.163 2.5 19.7989 2.76339 20.2678 3.23223C20.7366 3.70107 21 4.33696 21 5C21 5.66304 20.7366 6.29893 20.2678 6.76777C19.7989 7.23661 19.163 7.5 18.5 7.5ZM5 7.47V19H15.48L5 7.47Z"/></g></g><defs><clipPath id="a"><rect width="24" height="24" fill="white"/></clipPath></defs></svg>

<svg width="24" height="24" fill="none" xmlns="http://www.w3.org/2000/svg"><g clip-path="url(#a)"><path d="m6.364 6 8.784 9.663.72-.283c1.685-.661 2.864-2.156 3.092-3.896A6.502 6.502 0 0 1 12.077 6H6.363h.001ZM14 5a4.5 4.5 0 0 0 6.714 3.918c.186.618.286 1.271.286 1.947 0 2.891-1.822 5.364-4.4 6.377L20 21H3V4h11.111A4.516 4.516 0 0 0 14 5Zm4.5 2.5a2.5 2.5 0 1 1 0-5 2.5 2.5 0 0 1 0 5ZM5 7.47V19h10.48L5 7.47Z" /></g><defs><clipPath id="a"><path fill="#fff" d="M0 0h24v24H0z"/></clipPath></defs></svg>
